X:1
T:Lord Randall
M:4/4
L:1/8
K:G
 G| GB dd-c A| AGG/2-F/2 G2 z B| dB dg-e c| cd e d2 z2 B| dd d e/2f/2 g g2 g/2e/2|\
 cc e d2 z G/2A/2| BA B/2c/2 e d2 G| F3/2 G/2 A G2 z| G| BA B c/2c/2 e/2 d3/2 G|\
 FG A G2 B| dB d e/2f/2 g/2 g3/2 e| cd e d2 z B/2c/2| dB dg g2 g/2e/2|\
 cc e d2 z B/2c/2| BA B/2c/2 e d2 G| F3/2 G/2 A G2 z| G| BA B3.99999962500005/5.99999925000009 c3.99999962500005/5.99999925000009 e3.99999962500005/5.99999925000009 dG|\
 FG A G2 B| dB d/2d/2 g g2 e| cc e d2 B/2- B/2 c/2| dd d e/2- e/2 f/2|\
 g g2 g/2e/2| ce e d2 z G/2A/2| BA B/2c/2 e d2 G| F3/2 G/2 A G2 z G|\
 BA B c/2d/2 e d2| G| FG A G2 z B| dB d e/2f/2 g g2 e| cc e d2 z B|\
 dB dg g2 g/2e/2| cc e d2 z G/2A/2| BA B/2c/2 e d2 G| F3/2 G/2 A G2 z||\
